X: 20311
M: C|
L: 1/8
K: A
c/e/ |\
eAec eAAc/d/ | eAec d=GGc/d/ |\
eAec eAec | B=gdg BGG :|\
|: B |\


